X:1
T:Graves tesmoins
T:Constantijn Huygens
T:Graves tesmoins
C:Constantijn Huygens
%%score 1 2 { ( 3 5 ) | 4 }
L:1/8
Q:1/4=50
M:3/4
K:F
V:1 treble-8 nm="Tenor" snm="T"
V:2 treble-8 transpose=-12 nm="Viola da Gamba" snm="V.Gam."
V:3 treble nm="Harpsichord" snm="Hpschd."
V:5 treble 
V:4 bass 
V:1
 A4 GG | ^F6 | G3 A E2 |[M:4/4] F4 E4 |[M:3/4] c4 ^cc | d4 d/c/B/A/ | G3 A F2 | E2 ^C2 EE | F4 GG | %9
w: 1.Gra- ves tes-|moins|de mes de-|li- ces,|Ches- nes touf-|fus, beaux _ _ _|_ pre- ci-|pi- ces, Que j'ay|veu tant d'es-|
w: 2.N'at- ten- dez|plus|que je me|ren- de|Où au- tre|que l'A- * * *|* mour m'en-|ten- de: La seule|E- cho me|
 A4 z A | =B3 c de | ^c4 d2- | d2 ^GA =B>A | A6 ::[M:4/4]"^Refrain" f2 c4- cc |[M:3/4] d3 d cB | %16
w: tez, Ja-|loux et glo- ri-|eux de|_ mes fe- li- ci-|tez.|A- dieu, _ de-|serts, puis- qu'A- ma-|
w: nuit, Et|l'om- bre qu'il me|faut c'est|_ l'e- ter- nel- le|nuict.|||
 A2 FF G>A | B2 Bc A>G | G3 G A=B |[M:2/4] ^c2 d2 |[M:3/4] e4 A2 | f4 e2 | f3 c B>B | A6 | %24
w: ran- te, L'in- gra- te a-|man- te, Ne gous- te|plus, ne gous- te|plus vos|om- bres|ny ma|voix, Vous n'es- tes|plus,|
w: ||||||||
 f4- fg/a/ | ^c6- | c2 d2 ^c>d | d6 :| %28
w: vous _ _ _|n'es-|* tes plus mes|bois.|
w: ||||
V:2
 d2 ^c4 | d6 | =B2 ^c4 |[M:4/4] d4 A2 ag |[M:3/4] f4 e2 | d4 d2 | =B2 ^c2 d2 | A4 A2 | A2 G4 | %9
 F4 f2 | e4 d2 | a2 f4 | e4 E2 | A6 ::[M:4/4] d2 f6 |[M:3/4] B4 c2 | d4 _e2- | e2 B2 F2 | %18
 c2 c'2 !courtesy!_b2 |[M:2/4] a2 f2 |[M:3/4] e4 d2- | d2 c3 B | A4 G2 | F2 E4 | D6 | A6 | A6 | %27
 d6 :| %28
V:3
 [DFA]2 [A,^CE]4 | [A,D^F]4 E2 | [G,=B,D]2 [A,^CE]2 AG |[M:4/4] [A,DF]4 [A,CE]4 | %4
[M:3/4] [CFA]4 [^CEA]2 | [DFA]4 [D^FA]2 | [=B,DG]2 [EA]2 [FA]2 | A2 E2 E2 | [A,CF]2 [CF]2 [B,E]2 | %9
 [A,CF]4 z2 | G3 A =Bc | A4 [FA]2 | =B2 e2 e/d/c/d/ | [A^ce]2 ed =c=B :: %14
[M:4/4] [DFA]2 F2 [A,C]3 [A,C] |[M:3/4] [B,DFB]4 [CEG]2 | [A,DF]4 [G,B,_E]2 | %17
 [_EGB]2 [B,DF]2 [A,CF]2 | [CEG]4 ED |[M:2/4] [^CEA]2 [DFA]2 |[M:3/4] [EGc]4 [DFA]2 | %21
 [DFAd]4 [EGc]2 | [FAc]2 z2 [DGB]2 | [CFA]2 [CEA]2 [CEG]2 | [DFAd]4 z2 | [^CEA]2 AG AB | %26
 ^c2 A2 A2 | G2 [GB]2 !fermata![^FA]2 :| %28
V:4
 D,2 ^C,4 | D,6 | =B,,2 ^C,4 |[M:4/4] D,4 A,,2 A,G, |[M:3/4] F,4 E,2 | D,4 D,2 | =B,,2 ^C,2 D,2 | %7
 A,,4 A,,2 | A,,2 G,,4 | F,,4 F,2 | E,4 D,2 | A,2 F,4 | E,4 E,,2 | A,,6 ::[M:4/4] D,2 F,6 | %15
[M:3/4] B,,4 C,2 | D,4 _E,2- | E,2 B,,2 F,,2 | C,2 C2 !courtesy!_B,2 |[M:2/4] A,2 F,2 | %20
[M:3/4] E,4 D,2- | D,2 C,3 B,, | A,,4 G,,2 | F,,2 E,,4 | D,,6 | A,,6 | A,,6 | D,6 :| %28
V:5
 x6 | x6 | x6 |[M:4/4] x8 |[M:3/4] x6 | x6 | x6 | A,B, ^C2 =C2 | x6 | x6 | x6 | x6 | %12
 E2 [E=B]2 [EB]2 | x6 ::[M:4/4] x8 |[M:3/4] x6 | x6 | x6 | x6 |[M:2/4] x4 |[M:3/4] x6 | x6 | x6 | %23
 x6 | x6 | x6 | [EA]2 F/E/F/E/ G/F/E/F/ | x6 :| %28

